X:122
M:C|
L:1/8
K:A Minor
e>^f g2 f>g a2|e>^f g2 a>gfd|e>^f g2 f>g a2|e>d B2 A>GA>G|
e>^f g2 f>g a2|e>^f g2 agfd|e>^fge fd e2|d>B B2 A>GAG||

